icons/evolvere-blue-folders-flat-vivid-dark-fallback/apps/64/vivaldi.svg

<?xml version="1.0" encoding="UTF-8" standalone="no"?>
<!-- Created with Inkscape (http://www.inkscape.org/) -->

<svg
   xmlns:dc="http://purl.org/dc/elements/1.1/"
   xmlns:cc="http://creativecommons.org/ns#"
   xmlns:rdf="http://www.w3.org/1999/02/22-rdf-syntax-ns#"
   xmlns:svg="http://www.w3.org/2000/svg"
   xmlns="http://www.w3.org/2000/svg"
   xmlns:sodipodi="http://sodipodi.sourceforge.net/DTD/sodipodi-0.dtd"
   xmlns:inkscape="http://www.inkscape.org/namespaces/inkscape"
   width="64"
   height="64"
   id="svg13094"
   version="1.1"
   inkscape:version="0.91+devel r"
   sodipodi:docname="vivaldi.svg">
  <sodipodi:namedview
     id="base"
     pagecolor="#ffffff"
     bordercolor="#666666"
     borderopacity="1.0"
     inkscape:pageopacity="0"
     inkscape:pageshadow="2"
     inkscape:zoom="7.9999996"
     inkscape:cx="49.818459"
     inkscape:cy="28.884187"
     inkscape:document-units="px"
     inkscape:current-layer="svg13094"
     showgrid="false"
     inkscape:snap-bbox="true"
     inkscape:bbox-paths="true"
     inkscape:bbox-nodes="true"
     inkscape:snap-bbox-edge-midpoints="true"
     inkscape:snap-bbox-midpoints="true"
     inkscape:object-paths="true"
     inkscape:snap-intersection-paths="true"
     inkscape:object-nodes="true"
     inkscape:snap-smooth-nodes="true"
     inkscape:snap-midpoints="true"
     inkscape:snap-object-midpoints="true"
     inkscape:snap-center="true"
     showguides="true"
     inkscape:guide-bbox="true"
     inkscape:window-width="1920"
     inkscape:window-height="1025"
     inkscape:window-x="-2"
     inkscape:window-y="32"
     inkscape:window-maximized="1"
     inkscape:snap-global="true"
     fit-margin-top="0"
     fit-margin-left="0"
     fit-margin-right="0"
     fit-margin-bottom="0"
     showborder="true"
     inkscape:showpageshadow="false"
     inkscape:snap-page="true">
    <inkscape:grid
       type="xygrid"
       id="grid3075"
       empspacing="5"
       visible="true"
       enabled="true"
       snapvisiblegridlinesonly="true"
       originx="1.6362304e-08px"
       originy="18px" />
  </sodipodi:namedview>
  <defs
     id="defs13096" />
  <metadata
     id="metadata13099">
    <rdf:RDF>
      <cc:Work
         rdf:about="">
        <dc:format>image/svg+xml</dc:format>
        <dc:type
           rdf:resource="http://purl.org/dc/dcmitype/StillImage" />
        <dc:title></dc:title>
      </cc:Work>
    </rdf:RDF>
  </metadata>
  <path
     inkscape:connector-curvature="0"
     style="color:#000000;fill:#e92727;fill-opacity:1;fill-rule:nonzero;stroke:none;stroke-width:2.28571415;marker:none;visibility:visible;display:inline;overflow:visible;enable-background:accumulate"
     d="m 0,4 0,30 0,28 2,2 30,0 30,0 2,-2 L 64,34 64,4 32,4 0,4 z"
     id="path4095" />
  <path
     inkscape:connector-curvature="0"
     style="color:#000000;fill:#ff6d7a;fill-opacity:1;fill-rule:nonzero;stroke:none;stroke-width:2.28571415;marker:none;visibility:visible;display:inline;overflow:visible;enable-background:accumulate"
     d="M 2,0 0,1 0,4 32,4 64,4 64,1 62,0 32,0 2,0 z"
     id="path4090" />
  <path
     style="fill:#ff7b86;fill-opacity:1;fill-rule:nonzero"
     d="M 0,3 0,6 2,4 Z"
     id="path4298"
     inkscape:connector-curvature="0"
     sodipodi:nodetypes="cccc" />
  <path
     d="M 64,6 62,4 64,3 z"
     id="path3028"
     style="fill:#f4474e;fill-opacity:1"
     inkscape:connector-curvature="0" />
  <g
     id="g3043"
     inkscape:export-filename="folder.png"
     inkscape:export-xdpi="90"
     inkscape:export-ydpi="90"
     transform="translate(-0.62500009,0.082283)" />
  <g
     id="scalable"
     transform="matrix(1.0385892,0,0,1.0385892,1214.7222,1878.8121)"
     inkscape:label="#g3701"
     style="fill:#ffffff" />
  <path
     inkscape:connector-curvature="0"
     id="path16"
     style="color:#000000;fill:#ffffff;fill-opacity:0.6784452;fill-rule:nonzero;stroke:none;marker:none;visibility:visible;display:inline;overflow:visible;enable-background:accumulate"
     d="m 37.78969,34.083745 -10e-4,-7.3e-4 1.43901,-0.74559 -1.43791,0.74631" />
  <path
     style="color:#000000;fill:#890000;fill-opacity:0.22093023;fill-rule:nonzero;stroke:none;stroke-width:1.06597185;marker:none;visibility:visible;display:inline;overflow:visible;enable-background:accumulate"
     d="M 19.8125 16.4375 C 20.374715 17.015941 20.913997 17.794739 21.5 18.84375 C 21.54118 18.91746 21.64855 19.07017 21.71875 19.1875 C 21.898329 19.487628 22.664956 20.780429 25.3125 25.375 C 25.37776 25.488257 25.37325 25.482261 25.4375 25.59375 C 26.622588 27.650298 27.68008 29.503989 27.75 29.625 C 28.020922 30.093888 28.29656 30.510104 28.5625 30.90625 C 28.60597 30.97102 28.64406 31.030852 28.6875 31.09375 C 28.900814 31.402445 29.097708 31.703802 29.3125 31.96875 C 29.38823 32.0621 29.455037 32.161879 29.53125 32.25 C 29.758364 32.512599 30.01586 32.750783 30.25 32.96875 C 30.27145 32.98872 30.29097 33.01164 30.3125 33.03125 C 30.489525 33.192473 30.6605 33.331382 30.84375 33.46875 C 31.026485 33.606203 31.215605 33.72895 31.40625 33.84375 C 31.640247 33.983954 31.876172 34.110625 32.125 34.21875 C 32.439173 34.35524 32.781362 34.473319 33.125 34.5625 C 33.34468 34.61951 33.578616 34.64839 33.8125 34.6875 C 33.90815 34.70348 33.995531 34.73689 34.09375 34.75 C 33.748332 34.150665 33.722145 34.085901 33.3125 33.375 C 30.664956 28.780429 29.898329 27.487628 29.71875 27.1875 C 29.64855 27.07017 29.541178 26.917462 29.5 26.84375 C 28.841344 25.664682 28.201399 24.876751 27.59375 24.25 C 25.024836 21.600327 22.408218 19.037585 19.8125 16.4375 z M 51.53125 16.5 C 53.145783 18.068948 53.627045 20.637202 52.5625 22.71875 C 52.420326 22.996759 50.828575 25.819572 50.1875 26.90625 C 50.10582 27.044706 49.97199 27.255906 49.90625 27.375 C 49.81337 27.543272 47.615331 31.338687 44.6875 36.40625 C 44.61379 36.533829 43.37486 38.667576 41.9375 41.15625 C 40.50014 43.644923 39.26697 45.800525 39.1875 45.9375 C 39.10803 46.074476 38.99022 46.25161 38.9375 46.34375 C 38.88478 46.43589 38.79848 46.611794 38.71875 46.75 C 38.63902 46.888208 38.48518 47.143042 38.40625 47.28125 C 38.32732 47.419458 38.21554 47.58883 38.15625 47.6875 C 38.09697 47.78617 37.823359 48.303054 37.53125 48.8125 C 36.550811 50.522408 36.273036 50.913395 35.71875 51.46875 C 34.929985 52.259037 33.970546 52.766913 32.96875 52.90625 C 31.223116 53.149044 29.974708 52.924639 28.875 52 L 36.21875 59.34375 C 36.322029 59.461536 36.426271 59.55205 36.53125 59.65625 C 37.718284 60.834469 39.044193 61.17393 40.96875 60.90625 C 41.970546 60.766913 42.929985 60.259037 43.71875 59.46875 C 44.273036 58.913395 44.550811 58.522408 45.53125 56.8125 C 45.823359 56.303054 46.096973 55.786169 46.15625 55.6875 C 46.21554 55.58883 46.327319 55.419458 46.40625 55.28125 C 46.48518 55.143042 46.639015 54.888208 46.71875 54.75 C 46.79848 54.611794 46.884784 54.435888 46.9375 54.34375 C 46.99022 54.25161 47.108034 54.074476 47.1875 53.9375 C 47.26697 53.800525 48.50014 51.644923 49.9375 49.15625 C 51.37486 46.667576 52.613788 44.533829 52.6875 44.40625 C 55.615331 39.338687 57.813368 35.543272 57.90625 35.375 C 57.97199 35.255906 58.105822 35.044706 58.1875 34.90625 C 58.828575 33.819572 60.420326 30.996759 60.5625 30.71875 C 61.647982 28.596263 61.129352 25.961569 59.4375 24.40625 L 51.53125 16.5 z "
     id="path3865" />
  <path
     style="color:#000000;fill:#ffe8e8;fill-opacity:1;fill-rule:nonzero;stroke:none;stroke-width:1;marker:none;visibility:visible;display:inline;overflow:visible;enable-background:accumulate"
     d="m 16.286928,15.000585 c -3.838024,-0.05325 -6.5632654,3.980417 -4.944067,7.423427 0.08669,0.184357 4.731466,8.314764 5.352406,9.368803 0.08039,0.136466 0.193638,0.337562 0.251286,0.448128 0.05765,0.110567 0.159628,0.291493 0.228251,0.402059 0.173155,0.279009 0.181575,0.292826 2.657358,4.583888 1.216227,2.107983 2.277515,3.944899 2.357906,4.081314 0.08039,0.136416 0.193706,0.337562 0.251287,0.448129 0.05759,0.110566 0.179218,0.321647 0.272228,0.469067 0.09301,0.147422 0.200613,0.328349 0.238722,0.402059 0.03812,0.07371 0.136746,0.244793 0.217781,0.381118 0.08103,0.136326 0.568745,0.975416 1.084721,1.86371 0.515976,0.888294 1.00316,1.727385 1.082626,1.86371 0.07947,0.136326 0.1881,0.322483 0.240818,0.414623 0.05271,0.09214 0.165534,0.288142 0.251287,0.435563 0.08574,0.14742 0.19857,0.343426 0.251286,0.435563 0.05271,0.09214 0.161349,0.278255 0.240816,0.414624 0.07947,0.136369 0.368376,0.633916 0.642875,1.105661 1.693879,2.910993 3.198078,3.757807 5.991093,3.369336 1.001796,-0.139337 1.973294,-0.644142 2.762059,-1.434429 0.554286,-0.555355 0.828825,-0.962107 1.809264,-2.672015 0.292109,-0.509446 0.57941,-1.006993 0.638687,-1.105662 0.05929,-0.09867 0.172356,-0.293166 0.251287,-0.431374 0.07893,-0.138208 0.209245,-0.364366 0.28898,-0.502574 0.07973,-0.138206 0.1881,-0.326672 0.240816,-0.41881 0.05272,-0.09214 0.161349,-0.279742 0.240815,-0.416718 0.07947,-0.136975 1.320512,-2.285773 2.757872,-4.774446 1.43736,-2.488674 2.67369,-4.628021 2.747402,-4.7556 2.927831,-5.067563 5.119221,-8.867578 5.212103,-9.03585 0.06574,-0.119094 0.186362,-0.328518 0.26804,-0.466974 0.641075,-1.086678 2.247143,-3.884975 2.389317,-4.162984 1.216623,-2.378912 0.427298,-5.403687 -1.782041,-6.832903 -4.537005,-2.934973 -9.998865,1.825943 -7.714501,6.724013 2.804573,6.013474 -0.965474,12.226086 -7.419239,12.225096 -3.668992,-5.36e-4 -5.64296,-1.306009 -7.907153,-5.224669 -0.07371,-0.127571 -1.172565,-2.033861 -2.441669,-4.236274 -2.647544,-4.594571 -3.40335,-5.902464 -3.582929,-6.202592 -0.0702,-0.11733 -0.161946,-0.273902 -0.203124,-0.347614 -1.562675,-2.797363 -2.781014,-3.724679 -5.040388,-3.832121 -0.06147,-0.0029 -0.123358,-0.0054 -0.184278,-0.0063 z"
     id="path3859"
     inkscape:connector-curvature="0" />
</svg>

<svg xmlns="http://www.w3.org/2000/svg" viewBox="0 0 64 64"><g color="#000"><path d="m0 4v30 28l2 2h30 30l2-2v-28-30h-32-32" fill="#e92727"/><path d="m2 0l-2 1v3h32 32v-3l-2-1h-30-30" fill="#ff6d7a"/></g><path d="m0 3v3l2-2" fill="#ff7b86"/><path d="m64 6l-2-2 2-1z" fill="#f4474e"/><g color="#000"><path d="m37.79 34.08l1.438-.746-1.438.746" fill="#fff" fill-opacity=".678"/><path d="m19.813 16.438c.562.578 1.101 1.357 1.688 2.406.041.074.149.226.219.344.18.3.946 1.593 3.594 6.188.065.113.061.107.125.219 1.185 2.057 2.243 3.91 2.313 4.03.271.469.547.885.813 1.281.043.065.082.125.125.188.213.309.41.61.625.875.076.093.143.193.219.281.227.263.485.501.719.719.021.02.041.043.063.063.177.161.348.3.531.438.183.137.372.26.563.375.234.14.47.267.719.375.314.136.656.255 1 .344.22.057.454.086.688.125.096.016.183.049.281.063-.345-.599-.372-.664-.781-1.375-2.648-4.595-3.414-5.887-3.594-6.188-.07-.117-.178-.27-.219-.344-.659-1.179-1.299-1.967-1.906-2.594-2.569-2.65-5.186-5.212-7.781-7.813m31.719.063c1.615 1.569 2.096 4.137 1.031 6.219-.142.278-1.734 3.101-2.375 4.188-.082.138-.216.35-.281.469-.093.168-2.291 3.964-5.219 9.03-.074.128-1.313 2.261-2.75 4.75-1.437 2.489-2.671 4.644-2.75 4.781-.079.137-.197.314-.25.406-.053.092-.139.268-.219.406-.08.138-.234.393-.313.531-.079.138-.191.308-.25.406-.059.099-.333.616-.625 1.125-.98 1.71-1.258 2.101-1.813 2.656-.789.79-1.748 1.298-2.75 1.438-1.746.243-2.994.018-4.094-.906l7.344 7.344c.103.118.208.208.313.313 1.187 1.178 2.513 1.518 4.438 1.25 1-.139 1.961-.647 2.75-1.438.554-.555.832-.946 1.813-2.656.292-.509.566-1.026.625-1.125.059-.099.171-.268.25-.406.079-.138.233-.393.313-.531.08-.138.166-.314.219-.406.053-.092.171-.269.25-.406.079-.137 1.313-2.293 2.75-4.781 1.437-2.489 2.676-4.622 2.75-4.75 2.928-5.068 5.126-8.863 5.219-9.03.066-.119.2-.33.281-.469.641-1.087 2.233-3.909 2.375-4.188 1.085-2.122.567-4.757-1.125-6.313l-7.906-7.906" fill="#890000" fill-opacity=".221"/><path d="m16.287 15c-3.838-.053-6.563 3.98-4.944 7.423.087.184 4.731 8.315 5.352 9.369.08.136.194.338.251.448.058.111.16.291.228.402.173.279.182.293 2.657 4.584 1.216 2.108 2.278 3.945 2.358 4.081.08.136.194.338.251.448.058.111.179.322.272.469.093.147.201.328.239.402.038.074.137.245.218.381.081.136.569.975 1.085 1.864.516.888 1 1.727 1.083 1.864.079.136.188.322.241.415.053.092.166.288.251.436.086.147.199.343.251.436.053.092.161.278.241.415.079.136.368.634.643 1.106 1.694 2.911 3.198 3.758 5.991 3.369 1-.139 1.973-.644 2.762-1.434.554-.555.829-.962 1.809-2.672.292-.509.579-1.01.639-1.106.059-.099.172-.293.251-.431.079-.138.209-.364.289-.503.08-.138.188-.327.241-.419.053-.092.161-.28.241-.417.079-.137 1.321-2.286 2.758-4.774 1.437-2.489 2.674-4.628 2.747-4.756 2.928-5.068 5.119-8.868 5.212-9.04.066-.119.186-.329.268-.467.641-1.087 2.247-3.885 2.389-4.163 1.217-2.379.427-5.404-1.782-6.833-4.537-2.935-9.999 1.826-7.715 6.724 2.805 6.01-.965 12.226-7.419 12.225-3.669-.001-5.643-1.306-7.907-5.225-.074-.128-1.173-2.034-2.442-4.236-2.648-4.595-3.403-5.902-3.583-6.203-.07-.117-.162-.274-.203-.348-1.563-2.797-2.781-3.725-5.04-3.832-.061-.003-.123-.005-.184-.006" fill="#ffe8e8"/></g></svg>
